X:543
T:St. Anne's Reel
Z:Reel
O: Gordon Stobbe - Book 2
M:4/4
L:1/8
K:D
|:Ad|"D"f2 fg "A7"(fe)dB|"D"A2 FA (DF)Ad|"G"B2 GB "Em"(DG)Bd|"D"(BA)FA (DF)Ad|
"D"f2 fg "A7"(fe)dB|"D"A2 FA (DF)Ad|"Em"BGBd "A"cAce|[1"D"d2 dd d2 Ad:|[2"D"d2 dd d2 ag]|
|:"D"fdfa fdfa|"G"(ag)(gf) "Em"g2 (gf)|"A7"e(dcB)  Acea|"E7"(ba)(a^g) "A7"a2 (a=g)|
"D"fdfa "Bm"fdfa|"G"(ag)(gf) g2 (gf)|"Em"e(dcB) "A"Acec|[1"D"d2 dd d2 ag :|[2"D"d2 dd d2 z2||

%%newpage

